src/assets/svg/icons/fa/nuevos/classic/thin/duck classic thin.svg

<svg xmlns="http://www.w3.org/2000/svg" viewBox="0 0 512 512"><!--! Font Awesome Pro 6.4.0 by @fontawesome - https://fontawesome.com License - https://fontawesome.com/license (Commercial License) Copyright 2023 Fonticons, Inc. --><path d="M384 259V224.7c0-13.4 5.7-25 12.7-33.7c12.1-15.1 19.3-34.2 19.3-55c0-48.6-39.4-88-88-88s-88 39.4-88 88c0 25.8 11.1 49.1 28.9 65.2c6.4 5.8 12.2 13.3 15.6 22.1c1.7 4.2 1.5 8.9-.5 13s-5.7 7.1-10 8.3L92.3 295.4c-3.5 1-7.3 .7-10.6-.7l-51-21.9c-1.3-.6-2.7-.9-4.2-.9c-5.7 0-10.6 4.8-10.6 10.7C16 382.3 96.7 464 196 464H312c61.9 0 112-50.1 112-112c0-32-13.4-60.9-35-81.3c-3.2-3-5-7.2-5-11.6zm16-27v27c24.6 23.3 40 56.3 40 93c0 70.7-57.3 128-128 128H196C87.8 480 0 391 0 282.7C0 268.1 11.9 256 26.6 256c3.6 0 7.2 .7 10.5 2.1L88 280l166.1-46.5 15.6-4.4c-2.1-5.2-5.3-9.9-9.3-14c-.7-.7-1.4-1.4-2.2-2.1c-21-19-34.1-46.5-34.1-77c0-57.4 46.6-104 104-104c54.5 0 99.3 42 103.6 95.4c13 2.7 26.4 3.3 39.7 1.7l20.5-2.6c10.7-1.3 20.2 7 20.2 17.8c0 48.4-39.3 87.7-87.7 87.7H400zm1.2-16h23.1c39.6 0 71.7-32.1 71.7-71.7c0-1.2-1-2.1-2.2-1.9l-20.5 2.6c-13.9 1.7-27.9 1.3-41.6-1.2c-1.6 21.6-9.8 41.4-22.5 57.3c-3.6 4.5-6.4 9.6-8 15zM320 144a16 16 0 1 1 32 0 16 16 0 1 1 -32 0zm-2.7 166.7c-5.8 43.4-38.5 81.1-84.7 92.6c-37.8 9.4-75.9-.9-102.5-24.5c-3.3-2.9-3.6-8-.7-11.3s8-3.6 11.3-.7c22.6 20.1 55.3 29 88 20.9c39.9-10 67.8-42.4 72.7-79.2c.6-4.4 4.6-7.5 9-6.9s7.5 4.6 6.9 9z"/></svg>

<svg xmlns="http://www.w3.org/2000/svg" viewBox="0 0 512 512"><path d="M352 144C352 152.8 344.8 160 336 160C327.2 160 320 152.8 320 144C320 135.2 327.2 128 336 128C344.8 128 352 135.2 352 144zM232.6 403.3C194.7 412.7 156.6 402.4 130.1 378.8C126.8 375.9 126.5 370.8 129.4 367.5C132.4 364.2 137.4 363.9 140.7 366.9C163.3 386.1 196 395.9 228.7 387.8C268.6 377.8 296.5 345.3 301.4 308.6C301.1 304.2 306 301.1 310.4 301.7C314.8 302.3 317.8 306.3 317.3 310.7C311.5 354 278.8 391.8 232.6 403.3L232.6 403.3zM400 232V259C424.6 282.4 440 315.4 440 352C440 422.7 382.7 480 312 480H196C87.75 480 0 390.1 0 282.7C0 268.1 11.89 256 26.55 256C30.15 256 33.7 256.7 37.01 258.1L88 280L269.6 229.1C267.6 223.1 264.3 219.2 260.3 215.1C259.6 214.4 258.9 213.7 258.1 213C237.2 193.1 224 166.5 224 136C224 78.56 270.6 32 328 32C382.5 32 427.3 73.97 431.6 127.4C444.7 130.1 458.1 130.7 471.3 129L491.8 126.5C502.5 125.1 512 133.5 512 144.3C512 192.7 472.7 232 424.3 232H400zM384 224.7C384 211.3 389.7 199.7 396.7 190.1C408.8 175.9 416 156.8 416 136C416 87.4 376.6 48 328 48C279.4 48 240 87.4 240 136C240 161.8 251.1 185.1 268.9 201.2C275.3 207 281 214.5 284.5 223.2C286.2 227.4 285.1 232.2 283.1 236.2C281.1 240.3 278.3 243.3 273.9 244.5L92.31 295.4C88.8 296.4 85.05 296.1 81.7 294.7L30.71 272.9C29.39 272.3 27.98 272 26.55 272C20.86 272 15.1 276.8 15.1 282.7C15.1 382.3 96.72 464 195.1 464H312C373.9 464 424 413.9 424 352C424 319.1 410.6 291.1 388.1 270.7C385.8 267.6 384 263.4 384 259L384 224.7zM401.2 216H424.3C463.9 216 496 183.9 496 144.3C496 143.1 494.1 142.2 493.8 142.3L473.3 144.9C459.4 146.6 445.4 146.2 431.7 143.7C430.1 165.3 421.1 185.1 409.2 200.1C405.6 205.5 402.8 210.6 401.2 216H401.2z"/></svg>
